X:1
T:Title
%%score { ( 1 3 ) | ( 2 4 ) }
L:1/8
M:3/4
K:Bb
V:1 treble nm="Grand Piano"
V:3 treble 
V:2 bass 
V:4 bass 
V:1
 z2 z2[Q:1/4=94] [DF][DB] | [Fd]3 [DB] Ac | [Ec][DB] [DB]2 BG | [EG]4 z2 | [DF]4 z2 | c3 G AG | %6
 [EG]F [B,DF]2 ed | c4 z2 |[M:2/4] B4[K:bass] |[M:1/4][K:treble] [DF][Fd] |[M:3/4] c3 e dc | %11
 [DB]4 [DG][GB] | [^FA]3 [Ac] [GB][CDFA] | [B,DG]4 [B,EG][B,EG] | [B,EG]3 [B,GB] [B,FA][B,EG] | %15
 D2- [DB]2 cd | e3 A GA |[M:2/4] [DB]4 |] %18
V:2
 z2 z2 [B,,B,][B,,B,] | [B,,B,]3 [B,,F,] [F,C][F,E] | [B,,F,]2 [B,,F,]2[K:treble] GE | %3
 E,E, E,2[K:treble] GE | B,,B,, B,,2 [B,,B,][B,,B,] | [F,A,E]3 [F,A,E] [F,CE][F,A,E] | %6
 z D B,,2[K:treble] GF | E-[F,E-] [F,E]2[K:treble] FE |[M:2/4][K:bass] B,,B,, B,,2 | %9
[M:1/4] [B,,B,][B,,B,] |[M:3/4] [F,A,F]3 [F,CF] [F,B,F][F,A,E] | [B,,B,]4 [G,B,][G,D] | %12
 [D,D]3 [D,D] [D,D]D, | G,,4 E,E, | E,3 E, E,E, | z2 F,2 [F,A,F][F,B,F] | %16
 [F,CF]3 [F,CE] [F,CE][F,CE] |[M:2/4] [B,,B,]4 |] %18
V:3
 x6 | x6 | x6 | B,B, B,2 BG | B,B, B,2 [DF][Fd] | x6 | x6 | z A, A,2 dc | %8
[M:2/4] [B,D][K:bass][G,E] [F,D]2 |[M:1/4][K:treble] x2 |[M:3/4] x6 | x6 | x6 | x6 | x6 | %15
 [B,F]2 z2 z2 | x6 |[M:2/4] x4 |] %18
V:4
 x6 | x6 | x4[K:treble] x2 | x4[K:treble] x2 | x6 | x6 | [B,,B,]2 z2[K:treble] z2 | %7
 .[F,A,]2 z2[K:treble] z2 |[M:2/4][K:bass] x4 |[M:1/4] x2 |[M:3/4] x6 | x6 | x6 | x6 | x6 | %15
 B,,4 z2 | x6 |[M:2/4] x4 |] %18

